pim-2023/src/assets/sportIcon.svg

<svg width="90" height="59" viewBox="0 0 90 59" fill="none" xmlns="http://www.w3.org/2000/svg">
<path d="M14.6517 55.2291L25.4907 15.0294L14.2299 2.4361L10.8154 7.63257L14.5797 26.0208L5.57863 27.9143L0.893386 5.69569L12.3727 -11.4315L42.3279 -17.597L34.2671 -33.6335L42.4241 -37.7513L55.9438 -11.0362L37.1763 -7.13693L40.9109 -0.797129L86.5161 -18.3357L89.744 -10.4607L40.0747 14.9784L23.4093 58.1193L14.6517 55.2291ZM14.4717 -17.7917C12.0633 -18.5865 10.2846 -20.1269 9.1356 -22.4128C7.98657 -24.6987 7.81112 -27.046 8.60926 -29.4546C9.40544 -31.8671 10.9455 -33.6498 13.2295 -34.8028C15.5134 -35.9558 17.8576 -36.1338 20.2621 -35.3371C22.6704 -34.5423 24.4491 -33.0019 25.5982 -30.716C26.7472 -28.43 26.9226 -26.0827 26.1245 -23.6741C25.3283 -21.2617 23.7883 -19.4789 21.5043 -18.326C19.2203 -17.173 16.8761 -16.9949 14.4717 -17.7917Z" fill="#D2D2D2"/>
</svg>

<svg width="90" height="59" viewBox="0 0 90 59" fill="none" xmlns="http://www.w3.org/2000/svg"><path d="m14.652 55.23 10.839-40.2L14.23 2.435l-3.415 5.197L14.58 26.02l-9.001 1.893L.893 5.696l11.48-17.127 29.955-6.166-8.06-16.036 8.156-4.118 13.52 26.715-18.768 3.9 3.735 6.339 45.605-17.539 3.228 7.875-49.67 25.44-16.665 43.14-8.757-2.89Zm-.18-73.022c-2.409-.794-4.187-2.335-5.336-4.62-1.15-2.287-1.325-4.634-.527-7.043.796-2.412 2.336-4.195 4.62-5.348 2.284-1.153 4.629-1.33 7.033-.534 2.408.795 4.187 2.335 5.336 4.621 1.15 2.286 1.325 4.633.527 7.042-.797 2.412-2.337 4.195-4.62 5.348-2.285 1.153-4.629 1.331-7.033.534Z" fill="#D2D2D2"/></svg>
